projects/oblique/icons/Cog.svg

<?xml version="1.0" encoding="UTF-8"?><svg id="a" xmlns="http://www.w3.org/2000/svg" viewBox="0 0 24 24"><path d="M12,7.03345c-2.73877,0-4.9668,2.22852-4.9668,4.9668s2.22803,4.9668,4.9668,4.9668,4.9668-2.22852,4.9668-4.9668-2.22803-4.9668-4.9668-4.9668ZM12,15.46704c-1.91162,0-3.4668-1.55566-3.4668-3.4668s1.55518-3.4668,3.4668-3.4668,3.4668,1.55566,3.4668,3.4668-1.55518,3.4668-3.4668,3.4668ZM20.22803,8.78052c-.34033-.87109-.81299-1.67578-1.41113-2.40234l1.26123-2.21191L14.60547.969l-1.28955,2.27539c-.88721-.13086-1.77393-.12695-2.67773.02344l-.0874-.16406-.01562.00781-1.19482-2.11035-5.48389,3.20312,1.32178,2.2793c-.57617.72168-1.02979,1.51172-1.35498,2.36133H1.25v6.37598h2.55566c.32666.86621.78711,1.67285,1.375,2.40723l-1.25928,2.20703,5.46875,3.19531,1.24854-2.18945c.94189.15625,1.85596.15625,2.79688.00195l1.22949,2.15527,5.46777-3.19531-1.23828-2.17188c.59521-.74609,1.07031-1.58691,1.39941-2.47363h2.45605v-6.37695h-2.52197ZM21.25,13.65747h-2.05518l-.15967.53613c-.31104,1.04395-.86768,2.03027-1.60889,2.85059l-.36377.40332,1.03223,1.80859-2.87793,1.68164-1.02148-1.78906-.54248.12305c-1.08887.24805-2.13623.25-3.23096-.00195l-.54297-.12402-1.04053,1.82422-2.87793-1.68164,1.05273-1.84473-.36328-.40234c-.74023-.82129-1.27539-1.75977-1.59082-2.79004l-.1626-.53027h-2.14648v-3.37598l2.15625.00586.16553-.53027c.31689-1.0166.84766-1.94238,1.57764-2.75293l.36572-.40527-1.11084-1.91699,2.87939-1.68164.79346,1.40039.25586.51172.03223-.00684.09082.15918.56055-.31055c1.03027-.22363,2.03467-.21973,3.03418-.00781l.5376.11426,1.07275-1.89258,2.87891,1.68164-1.06396,1.86426.37549.40332c.75098.80762,1.30029,1.74219,1.63379,2.7793l.16699.52051h2.09766v3.37695Z"/></svg>

<svg xmlns="http://www.w3.org/2000/svg" viewBox="0 0 24 24"><title>Cog</title><path d="M12,7.03345a4.9668,4.9668,0,1,0,4.9668,4.9668A4.97265,4.97265,0,0,0,12,7.03345ZM12,15.467a3.4668,3.4668,0,1,1,3.4668-3.46679A3.471,3.471,0,0,1,12,15.467Z" fill="#171717"/><path d="M20.228,8.78052a8.81158,8.81158,0,0,0-1.41114-2.40234l1.26124-2.21192L14.60547.969,13.31592,3.24439a8.556,8.556,0,0,0-2.67774.02343l-.0874-.16406-.01562.00781L9.34033,1.00122,3.85645,4.20435,5.17822,6.48364A8.83394,8.83394,0,0,0,3.82324,8.845H1.25v6.376H3.80566a8.82131,8.82131,0,0,0,1.375,2.40723l-1.25927,2.207,5.46875,3.19531,1.24853-2.18945a8.45469,8.45469,0,0,0,2.79688.002L14.665,22.99829,20.13281,19.803l-1.23828-2.17187A9.0056,9.0056,0,0,0,20.294,15.15747H22.75v-6.377Zm1.022,4.877H19.19482l-.15966.53614a7.46155,7.46155,0,0,1-1.60889,2.85058l-.36377.40332,1.03223,1.8086L15.2168,20.93775l-1.02149-1.78907-.54248.12305a7.05315,7.05315,0,0,1-3.23095-.002l-.543-.124L8.83838,20.97,5.96045,19.28833l1.05273-1.84472-.36328-.40235a7.3645,7.3645,0,0,1-1.59082-2.79l-.1626-.53027H2.75V10.345l2.15625.00586.16553-.53027A7.36784,7.36784,0,0,1,6.64941,7.06763l.36573-.40527L5.9043,4.74536,8.78369,3.06372l.79346,1.40039.25586.51172L9.86523,4.969l.09082.15918.56055-.31055a7.12826,7.12826,0,0,1,3.03418-.00781l.5376.11425L15.16113,3.0315,18.04,4.71314l-1.064,1.86425.37549.40332A7.36458,7.36458,0,0,1,18.98535,9.76l.167.52051H21.25Z" fill="#171717"/></svg>
